; G-Code generated by Simplify3D(R) Version 4.1.2
; Feb 1, 2022 at 9:56:43 PM
; Settings Summary
;   processName,Process1
;   applyToModels,20mm_calibration_cube
;   profileName,Default (modified)
;   profileVersion,2017-03-01 08:00:00
;   baseProfile,
;   printMaterial,PLA
;   printQuality,Medium
;   printExtruders,
;   extruderName,Primary Extruder
;   extruderToolheadNumber,0
;   extruderDiameter,0.5
;   extruderAutoWidth,1
;   extruderWidth,0.6
;   extrusionMultiplier,0.9
;   extruderUseRetract,1
;   extruderRetractionDistance,1
;   extruderExtraRestartDistance,0
;   extruderRetractionZLift,0
;   extruderRetractionSpeed,1800
;   extruderUseCoasting,0
;   extruderCoastingDistance,0.2
;   extruderUseWipe,0
;   extruderWipeDistance,5
;   primaryExtruder,0
;   layerHeight,0.26
;   topSolidLayers,3
;   bottomSolidLayers,3
;   perimeterOutlines,2
;   printPerimetersInsideOut,1
;   startPointOption,2
;   startPointOriginX,0
;   startPointOriginY,0
;   sequentialIslands,0
;   spiralVaseMode,0
;   firstLayerHeightPercentage,100
;   firstLayerWidthPercentage,100
;   firstLayerUnderspeed,0.5
;   useRaft,0
;   raftExtruder,0
;   raftTopLayers,3
;   raftBaseLayers,2
;   raftOffset,3
;   raftSeparationDistance,0.14
;   raftTopInfill,100
;   aboveRaftSpeedMultiplier,0.3
;   useSkirt,1
;   skirtExtruder,0
;   skirtLayers,1
;   skirtOutlines,2
;   skirtOffset,3
;   usePrimePillar,0
;   primePillarExtruder,999
;   primePillarWidth,12
;   primePillarLocation,7
;   primePillarSpeedMultiplier,1
;   useOozeShield,0
;   oozeShieldExtruder,999
;   oozeShieldOffset,2
;   oozeShieldOutlines,1
;   oozeShieldSidewallShape,1
;   oozeShieldSidewallAngle,30
;   oozeShieldSpeedMultiplier,1
;   infillExtruder,0
;   internalInfillPattern,Fast Honeycomb
;   externalInfillPattern,Rectilinear
;   infillPercentage,20
;   outlineOverlapPercentage,15
;   infillExtrusionWidthPercentage,100
;   minInfillLength,5
;   infillLayerInterval,1
;   internalInfillAngles,0
;   overlapInternalInfillAngles,0
;   externalInfillAngles,45,-45
;   generateSupport,0
;   supportExtruder,0
;   supportInfillPercentage,20
;   supportExtraInflation,0
;   supportBaseLayers,0
;   denseSupportExtruder,0
;   denseSupportLayers,0
;   denseSupportInfillPercentage,70
;   supportLayerInterval,1
;   supportHorizontalPartOffset,0.3
;   supportUpperSeparationLayers,1
;   supportLowerSeparationLayers,1
;   supportType,0
;   supportGridSpacing,1
;   maxOverhangAngle,45
;   supportAngles,45
;   temperatureName,Primary Extruder,hb
;   temperatureNumber,0,0
;   temperatureSetpointCount,1,1
;   temperatureSetpointLayers,1,1
;   temperatureSetpointTemperatures,200,70
;   temperatureStabilizeAtStartup,1,1
;   temperatureHeatedBed,0,1
;   fanLayers,1,2
;   fanSpeeds,0,100
;   blipFanToFullPower,0
;   adjustSpeedForCooling,1
;   minSpeedLayerTime,15
;   minCoolingSpeedSlowdown,20
;   increaseFanForCooling,0
;   minFanLayerTime,45
;   maxCoolingFanSpeed,100
;   increaseFanForBridging,0
;   bridgingFanSpeed,100
;   use5D,1
;   relativeEdistances,0
;   allowEaxisZeroing,1
;   independentExtruderAxes,0
;   includeM10123,0
;   stickySupport,1
;   applyToolheadOffsets,0
;   gcodeXoffset,0
;   gcodeYoffset,0
;   gcodeZoffset,0
;   overrideMachineDefinition,0
;   machineTypeOverride,0
;   strokeXoverride,200
;   strokeYoverride,200
;   strokeZoverride,200
;   originOffsetXoverride,0
;   originOffsetYoverride,0
;   originOffsetZoverride,0
;   homeXdirOverride,-1
;   homeYdirOverride,-1
;   homeZdirOverride,-1
;   flipXoverride,1
;   flipYoverride,-1
;   flipZoverride,1
;   toolheadOffsets,0,0|0,0|0,0|0,0|0,0|0,0
;   overrideFirmwareConfiguration,0
;   firmwareTypeOverride,RepRap (Marlin/Repetier/Sprinter)
;   GPXconfigOverride,r2
;   baudRateOverride,115200
;   overridePrinterModels,0
;   printerModelsOverride
;   startingGcode,G28 ; home all axes
;   layerChangeGcode,
;   retractionGcode,
;   toolChangeGcode,
;   endingGcode,M104 S0 ; turn off extruder,M140 S0 ; turn off bed,M84 ; disable motors
;   exportFileFormat,gcode
;   celebration,0
;   celebrationSong,Random Song
;   postProcessing,
;   defaultSpeed,3600
;   outlineUnderspeed,0.5
;   solidInfillUnderspeed,0.8
;   supportUnderspeed,0.8
;   rapidXYspeed,4800
;   rapidZspeed,1000
;   minBridgingArea,50
;   bridgingExtraInflation,0
;   bridgingExtrusionMultiplier,1
;   bridgingSpeedMultiplier,1
;   useFixedBridgingAngle,0
;   fixedBridgingAngle,0
;   applyBridgingToPerimeters,0
;   filamentDiameters,1.75|1.75|1.75|1.75|1.75|1.75
;   filamentPricesPerKg,46|46|46|46|46|46
;   filamentDensities,1.25|1.25|1.25|1.25|1.25|1.25
;   useMinPrintHeight,0
;   minPrintHeight,0
;   useMaxPrintHeight,0
;   maxPrintHeight,0
;   useDiaphragm,0
;   diaphragmLayerInterval,20
;   robustSlicing,1
;   mergeAllIntoSolid,0
;   onlyRetractWhenCrossingOutline,1
;   retractBetweenLayers,1
;   useRetractionMinTravel,0
;   retractionMinTravel,3
;   retractWhileWiping,0
;   onlyWipeOutlines,1
;   avoidCrossingOutline,0
;   maxMovementDetourFactor,3
;   toolChangeRetractionDistance,12
;   toolChangeExtraRestartDistance,-0.5
;   toolChangeRetractionSpeed,600
;   externalThinWallType,0
;   internalThinWallType,2
;   thinWallAllowedOverlapPercentage,10
;   singleExtrusionMinLength,1
;   singleExtrusionMinPrintingWidthPercentage,50
;   singleExtrusionMaxPrintingWidthPercentage,200
;   singleExtrusionEndpointExtension,0.2
;   horizontalSizeCompensation,0
G90
M82
M106 S0
M140 S70
M190 S70
M104 S200 T0
M109 S200 T0
G28 ; home all axes
; process Process1
; layer 1, Z = 0.260
T0
G92 E0.0000
G1 E-1.0000 F1800
; feature skirt
; tool H0.260 W0.600
G1 Z0.260 F1000
G1 X86.099 Y88.384 F4800
G1 E0.0000 F1800
G92 E0.0000
G1 X88.384 Y86.099 E0.1886 F1800
G1 X111.616 Y86.099 E1.5447
G1 X113.900 Y88.384 E1.7333
G1 X113.900 Y111.616 E3.0893
G1 X111.616 Y113.900 E3.2779
G1 X88.384 Y113.900 E4.6340
G1 X86.099 Y111.616 E4.8226
G1 X86.099 Y88.384 E6.1787
G92 E0.0000
G1 E-1.0000 F1800
G1 X86.699 Y88.633 F4800
G1 E0.0000 F1800
G92 E0.0000
G1 X88.633 Y86.699 E0.1596 F1800
G1 X111.367 Y86.699 E1.4866
G1 X113.300 Y88.633 E1.6462
G1 X113.300 Y111.367 E2.9733
G1 X111.367 Y113.300 E3.1329
G1 X88.633 Y113.300 E4.4599
G1 X86.699 Y111.367 E4.6195
G1 X86.699 Y88.633 E5.9466
G92 E0.0000
G1 E-1.0000 F1800
; feature inner perimeter
G1 X90.899 Y90.899 F4800
G1 E0.0000 F1800
G92 E0.0000
G1 X109.100 Y90.899 E1.0624 F1350
G1 X109.100 Y109.100 E2.1248
G1 X90.899 Y109.100 E3.1873
G1 X90.899 Y90.899 E4.2497
; feature outer perimeter
G1 X90.299 Y90.299 F4800
G92 E0.0000
G1 X109.700 Y90.299 E1.1325 F900
G1 X109.700 Y109.700 E2.2649
G1 X90.299 Y109.700 E3.3974
G1 X90.299 Y90.299 E4.5299
; feature solid layer
G1 X108.380 Y91.409 F4800
G92 E0.0000
G1 X108.590 Y91.620 E0.0174 F1440
G1 X108.590 Y92.468 E0.0669
G1 X107.532 Y91.409 E0.1543
G1 X106.683 Y91.409 E0.2038
G1 X108.590 Y93.317 E0.3613
G1 X108.590 Y94.165 E0.4108
G1 X105.834 Y91.409 E0.6383
G1 X104.986 Y91.409 E0.6879
G1 X108.590 Y95.014 E0.9854
G1 X108.590 Y95.863 E1.0350
G1 X104.137 Y91.409 E1.4026
G1 X103.289 Y91.409 E1.4521
G1 X108.590 Y96.711 E1.8897
G1 X108.590 Y97.560 E1.9393
G1 X102.440 Y91.409 E2.4470
G1 X101.592 Y91.409 E2.4965
G1 X108.590 Y98.408 E3.0742
G1 X108.590 Y99.257 E3.1238
G1 X100.743 Y91.409 E3.7715
G1 X99.895 Y91.409 E3.8211
G1 X108.590 Y100.105 E4.5389
G1 X108.590 Y100.954 E4.5884
G1 X99.046 Y91.409 E5.3763
G1 X98.198 Y91.409 E5.4258
G1 X108.590 Y101.802 E6.2838
G1 X108.590 Y102.651 E6.3333
G1 X97.349 Y91.409 E7.2612
G1 X96.501 Y91.409 E7.3108
G1 X108.590 Y103.499 E8.3088
G1 X108.590 Y104.348 E8.3583
G1 X95.652 Y91.409 E9.4264
G1 X94.804 Y91.409 E9.4759
G1 X108.590 Y105.196 E10.6140
G1 X108.590 Y106.045 E10.6635
G1 X93.955 Y91.409 E11.8717
G1 X93.107 Y91.409 E11.9212
G1 X108.590 Y106.893 E13.1994
G1 X108.590 Y107.742 E13.2489
G1 X92.258 Y91.409 E14.5972
G1 X91.410 Y91.409 E14.6467
G1 X108.590 Y108.590 E16.0650
G1 X107.742 Y108.590 E16.1145
G1 X91.409 Y92.258 E17.4628
G1 X91.409 Y93.107 E17.5123
G1 X106.893 Y108.590 E18.7905
G1 X106.045 Y108.590 E18.8400
G1 X91.409 Y93.955 E20.0482
G1 X91.409 Y94.804 E20.0977
G1 X105.196 Y108.590 E21.2358
G1 X104.348 Y108.590 E21.2854
G1 X91.409 Y95.652 E22.3534
G1 X91.409 Y96.501 E22.4029
G1 X103.499 Y108.590 E23.4010
G1 X102.651 Y108.590 E23.4505
G1 X91.409 Y97.349 E24.3785
G1 X91.409 Y98.198 E24.4280
G1 X101.802 Y108.590 E25.2859
G1 X100.954 Y108.590 E25.3354
G1 X91.409 Y99.046 E26.1233
G1 X91.409 Y99.895 E26.1728
G1 X100.105 Y108.590 E26.8907
G1 X99.257 Y108.590 E26.9402
G1 X91.409 Y100.743 E27.5880
G1 X91.409 Y101.592 E27.6375
G1 X98.408 Y108.590 E28.2153
G1 X97.560 Y108.590 E28.2648
G1 X91.409 Y102.440 E28.7725
G1 X91.409 Y103.289 E28.8220
G1 X96.711 Y108.590 E29.2597
G1 X95.863 Y108.590 E29.3092
G1 X91.409 Y104.137 E29.6768
G1 X91.409 Y104.986 E29.7263
G1 X95.014 Y108.590 E30.0239
G1 X94.166 Y108.590 E30.0734
G1 X91.409 Y105.834 E30.3009
G1 X91.409 Y106.683 E30.3505
G1 X93.317 Y108.590 E30.5079
G1 X92.468 Y108.590 E30.5574
G1 X91.409 Y107.532 E30.6449
G1 X91.409 Y108.380 E30.6944
G1 X91.620 Y108.590 E30.7118
G92 E0.0000
G1 E-1.0000 F1800
; layer 2, Z = 0.520
M106 S255
; feature inner perimeter
G1 Z0.520 F1000
G1 X90.899 Y109.100 F4800
G1 E0.0000 F1800
G92 E0.0000
G1 X90.899 Y90.899 E1.0624 F2700
G1 X109.100 Y90.899 E2.1248
G1 X109.100 Y109.100 E3.1873
G1 X90.899 Y109.100 E4.2497
; feature outer perimeter
G1 X90.299 Y109.700 F4800
G92 E0.0000
G1 X90.299 Y90.299 E1.1325 F1800
G1 X109.700 Y90.299 E2.2649
G1 X109.700 Y109.700 E3.3974
G1 X90.299 Y109.700 E4.5299
; feature solid layer
G1 X91.409 Y91.620 F4800
G92 E0.0000
G1 X91.620 Y91.409 E0.0174 F2880
G1 X92.469 Y91.409 E0.0669
G1 X91.409 Y92.469 E0.1543
G1 X91.409 Y93.317 E0.2039
G1 X93.317 Y91.409 E0.3613
G1 X94.166 Y91.409 E0.4109
G1 X91.409 Y94.166 E0.6384
G1 X91.409 Y95.014 E0.6879
G1 X95.014 Y91.409 E0.9855
G1 X95.863 Y91.409 E1.0350
G1 X91.409 Y95.863 E1.4026
G1 X91.409 Y96.711 E1.4521
G1 X96.711 Y91.409 E1.8898
G1 X97.560 Y91.409 E1.9393
G1 X91.409 Y97.560 E2.4470
G1 X91.409 Y98.408 E2.4965
G1 X98.408 Y91.409 E3.0743
G1 X99.257 Y91.409 E3.1238
G1 X91.409 Y99.257 E3.7716
G1 X91.409 Y100.105 E3.8211
G1 X100.105 Y91.409 E4.5390
G1 X100.954 Y91.409 E4.5885
G1 X91.409 Y100.954 E5.3764
G1 X91.409 Y101.802 E5.4259
G1 X101.802 Y91.409 E6.2838
G1 X102.651 Y91.409 E6.3334
G1 X91.409 Y102.651 E7.2613
G1 X91.409 Y103.499 E7.3109
G1 X103.499 Y91.409 E8.3089
G1 X104.348 Y91.409 E8.3584
G1 X91.409 Y104.348 E9.4265
G1 X91.409 Y105.196 E9.4760
G1 X105.196 Y91.409 E10.6141
G1 X106.045 Y91.409 E10.6636
G1 X91.409 Y106.045 E11.8718
G1 X91.409 Y106.893 E11.9213
G1 X106.893 Y91.409 E13.1995
G1 X107.742 Y91.409 E13.2491
G1 X91.409 Y107.742 E14.5973
G1 X91.410 Y108.590 E14.6468
G1 X108.590 Y91.410 E16.0651
G1 X108.590 Y92.258 E16.1146
G1 X92.258 Y108.590 E17.4629
G1 X93.107 Y108.590 E17.5124
G1 X108.590 Y93.107 E18.7906
G1 X108.590 Y93.955 E18.8401
G1 X93.955 Y108.590 E20.0483
G1 X94.804 Y108.590 E20.0978
G1 X108.590 Y94.804 E21.2359
G1 X108.590 Y95.652 E21.2854
G1 X95.652 Y108.590 E22.3535
G1 X96.501 Y108.590 E22.4030
G1 X108.590 Y96.501 E23.4010
G1 X108.590 Y97.349 E23.4506
G1 X97.349 Y108.590 E24.3785
G1 X98.198 Y108.590 E24.4281
G1 X108.590 Y98.198 E25.2860
G1 X108.590 Y99.046 E25.3355
G1 X99.046 Y108.590 E26.1234
G1 X99.895 Y108.590 E26.1729
G1 X108.590 Y99.895 E26.8907
G1 X108.590 Y100.743 E26.9403
G1 X100.743 Y108.590 E27.5880
G1 X101.592 Y108.590 E27.6376
G1 X108.590 Y101.592 E28.2153
G1 X108.590 Y102.440 E28.2648
G1 X102.440 Y108.590 E28.7725
G1 X103.289 Y108.590 E28.8220
G1 X108.590 Y103.289 E29.2597
G1 X108.590 Y104.137 E29.3092
G1 X104.137 Y108.590 E29.6768
G1 X104.986 Y108.590 E29.7263
G1 X108.590 Y104.986 E30.0239
G1 X108.590 Y105.835 E30.0734
G1 X105.835 Y108.590 E30.3009
G1 X106.683 Y108.590 E30.3505
G1 X108.590 Y106.683 E30.5079
G1 X108.590 Y107.532 E30.5575
G1 X107.532 Y108.590 E30.6449
G1 X108.380 Y108.590 E30.6944
G1 X108.590 Y108.380 E30.7118
G92 E0.0000
G1 E-1.0000 F1800
; layer 3, Z = 0.780
; feature inner perimeter
G1 Z0.780 F1000
G1 X109.100 Y109.100 F4800
G1 E0.0000 F1800
G92 E0.0000
G1 X90.899 Y109.100 E1.0624 F2700
G1 X90.899 Y90.899 E2.1248
G1 X109.100 Y90.899 E3.1873
G1 X109.100 Y109.100 E4.2497
; feature outer perimeter
G1 X109.700 Y109.700 F4800
G92 E0.0000
G1 X90.299 Y109.700 E1.1325 F1800
G1 X90.299 Y90.299 E2.2649
G1 X109.700 Y90.299 E3.3974
G1 X109.700 Y109.700 E4.5299
; feature solid layer
G1 X91.620 Y108.590 F4800
G92 E0.0000
G1 X91.409 Y108.380 E0.0174 F2880
G1 X91.409 Y107.532 E0.0669
G1 X92.468 Y108.590 E0.1543
G1 X93.317 Y108.590 E0.2039
G1 X91.409 Y106.683 E0.3613
G1 X91.409 Y105.834 E0.4108
G1 X94.166 Y108.590 E0.6384
G1 X95.014 Y108.590 E0.6879
G1 X91.409 Y104.986 E0.9854
G1 X91.409 Y104.137 E1.0350
G1 X95.863 Y108.590 E1.4026
G1 X96.711 Y108.590 E1.4521
G1 X91.409 Y103.289 E1.8898
G1 X91.409 Y102.440 E1.9393
G1 X97.560 Y108.590 E2.4470
G1 X98.408 Y108.590 E2.4965
G1 X91.409 Y101.592 E3.0742
G1 X91.409 Y100.743 E3.1238
G1 X99.257 Y108.590 E3.7716
G1 X100.105 Y108.590 E3.8211
G1 X91.409 Y99.895 E4.5389
G1 X91.409 Y99.046 E4.5884
G1 X100.954 Y108.590 E5.3763
G1 X101.802 Y108.590 E5.4259
G1 X91.409 Y98.198 E6.2838
G1 X91.409 Y97.349 E6.3333
G1 X102.651 Y108.590 E7.2613
G1 X103.499 Y108.590 E7.3108
G1 X91.409 Y96.501 E8.3088
G1 X91.409 Y95.652 E8.3584
G1 X104.348 Y108.590 E9.4264
G1 X105.196 Y108.590 E9.4759
G1 X91.409 Y94.804 E10.6140
G1 X91.409 Y93.955 E10.6636
G1 X106.045 Y108.590 E11.8717
G1 X106.893 Y108.590 E11.9213
G1 X91.409 Y93.107 E13.1995
G1 X91.409 Y92.258 E13.2490
G1 X107.742 Y108.590 E14.5972
G1 X108.590 Y108.590 E14.6468
G1 X91.410 Y91.409 E16.0650
G1 X92.258 Y91.409 E16.1146
G1 X108.590 Y107.742 E17.4628
G1 X108.590 Y106.893 E17.5123
G1 X93.107 Y91.409 E18.7905
G1 X93.955 Y91.409 E18.8401
G1 X108.590 Y106.045 E20.0482
G1 X108.590 Y105.196 E20.0978
G1 X94.804 Y91.409 E21.2359
G1 X95.652 Y91.409 E21.2854
G1 X108.590 Y104.348 E22.3534
G1 X108.590 Y103.499 E22.4030
G1 X96.501 Y91.409 E23.4010
G1 X97.349 Y91.409 E23.4505
G1 X108.590 Y102.651 E24.3785
G1 X108.590 Y101.802 E24.4280
G1 X98.198 Y91.409 E25.2859
G1 X99.046 Y91.409 E25.3355
G1 X108.590 Y100.954 E26.1233
G1 X108.590 Y100.105 E26.1729
G1 X99.895 Y91.409 E26.8907
G1 X100.743 Y91.409 E26.9402
G1 X108.590 Y99.257 E27.5880
G1 X108.590 Y98.408 E27.6375
G1 X101.592 Y91.409 E28.2153
G1 X102.440 Y91.409 E28.2648
G1 X108.590 Y97.560 E28.7725
G1 X108.590 Y96.711 E28.8220
G1 X103.289 Y91.409 E29.2597
G1 X104.137 Y91.409 E29.3092
G1 X108.590 Y95.863 E29.6768
G1 X108.590 Y95.014 E29.7263
G1 X104.986 Y91.409 E30.0239
G1 X105.834 Y91.409 E30.0734
G1 X108.590 Y94.165 E30.3009
G1 X108.590 Y93.317 E30.3505
G1 X106.683 Y91.409 E30.5079
G1 X107.532 Y91.409 E30.5574
G1 X108.590 Y92.468 E30.6449
G1 X108.590 Y91.620 E30.6944
G1 X108.380 Y91.409 E30.7118
G92 E0.0000
G1 E-1.0000 F1800
; layer 4, Z = 1.040
; feature inner perimeter
G1 Z1.040 F1000
G1 X109.100 Y90.899 F4800
G1 E0.0000 F1800
G92 E0.0000
G1 X109.100 Y109.100 E1.0624 F1220
G1 X90.899 Y109.100 E2.1248
G1 X90.899 Y90.899 E3.1873
G1 X109.100 Y90.899 E4.2497
; feature outer perimeter
G1 X109.700 Y90.299 F4800
G92 E0.0000
G1 X109.700 Y109.700 E1.1325 F813
G1 X90.299 Y109.700 E2.2649
G1 X90.299 Y90.299 E3.3974
G1 X109.700 Y90.299 E4.5299
; feature infill
G1 X91.576 Y91.409 F4800
G92 E0.0000
G1 X92.942 Y93.775 E0.1594 F1627
G1 X96.666 Y93.775 E0.3768
G1 X98.032 Y91.409 E0.5363
G1 X101.968 Y91.409 E0.7661
G1 X103.334 Y93.775 E0.9255
G1 X107.058 Y93.775 E1.1429
G1 X108.424 Y91.409 E1.3023
G1 X108.590 Y91.409 E1.3120
G1 X108.590 Y96.775 E1.6252
